X: 1
T:Majsko Oro
O:Macedonia
M:18/16
L:1/16
N:11  7
P:ABBABBCCDD
K:Bb
P:A
de f2 f2e d4 def fe d2|\
de f2 f2e d4 e2d d4||
P:B
Bc dc d2c B4 e2e d2d2|\
Bc dc d2c B4 c2B B2B2||
P:C
f2e2 d2c cdc2 B2B Bc d2|\
f2e2 d2c cdc2 B2B BB B2||
P:D
d2e2 d2c cdc2 B2B Bc d2|\
d2e2 d2c cdc2 B2B BB B2||
